X:386
T: Der Baum (4-85), S. 110
N: P0656
O: Lothringen
S: PINCK, Louis: Verklingende Weisen Bd 4, Kassel 1939]
R: ???, erzhlendes Lied]
M: 2/4
L: 1/8
K: F
 | F2G2F2 | G4c2 | F4c2 | c2cB | A4G2 | F4z2
F2G2A2 | c3BA2 | G4z2
c3BA2 | G4z2
F2F2GG | A2c2B2 | A4G2 | F4z2

@@@ Tune index: 7936
